T: Elliot Finn MacDonald
M: 4/4
L: 1/8
K: Dmaj
|: d2-d2 d2 AB | d2 A2 f2-f2 | gf ed B2 AB | d2-df ed BA |
d2-d2 d2 AB | d2 A2 f2-f2 | gf ed B2 AB |1 d2-d2 d2-d2 :|2 d2-d2 d2 ef ||
|: g2-g2 g2 ag | f2 ed d2 fd | e2 c2 c2 ae | f2 ed d2 ef |
g2-g2 g2 ag | f2 ed d2 fd | e2 A2 A2 BA |1 d2-d2 d2 ef :|2 d2-d2 d2-d2 ||
